packages/foundations/assets/icons/functional/images/security/shield_check_32.svg

<svg width="32" height="32" viewBox="0 0 32 32" fill="none" xmlns="http://www.w3.org/2000/svg">
<g clip-path="url(#clip0_187_302)">
<path fill-rule="evenodd" clip-rule="evenodd" d="M12.7072 14.2931C12.3162 13.9022 11.6842 13.9022 11.2932 14.2931C10.9023 14.6841 10.9023 15.3161 11.2932 15.7071L14.2931 18.707C14.4881 18.902 14.7441 19 15.0001 19C15.2561 19 15.512 18.902 15.707 18.707L21.7068 12.7072C22.0977 12.3162 22.0977 11.6842 21.7068 11.2932C21.3158 10.9023 20.6838 10.9023 20.2928 11.2932L15.0001 16.5861L12.7072 14.2931ZM25 13.0403C25 19.7512 22.0561 24.6491 16 28C9.9448 24.6491 7 19.7512 7 13.0403V8.33031L16 4L25 8.33031V13.0403ZM16.7049 2.154C16.4794 2.051 16.2402 2 16 2C15.7598 2 15.5206 2.051 15.2951 2.154L5.56375 6.73C5.22275 6.885 5 7.25 5 7.653V13C5 20.523 8.53192 26.23 15.5948 29.901C15.7213 29.967 15.8607 30 16 30C16.1393 30 16.2787 29.967 16.4052 29.901C23.4681 26.23 27 20.524 27 13V7.653C27 7.25 26.7773 6.885 26.4363 6.73L16.7049 2.154Z" fill="#1A1C1F"/>
</g>
<defs>
<clipPath id="clip0_187_302">
<rect width="32" height="32" fill="white"/>
</clipPath>
</defs>
</svg>

<svg xmlns="http://www.w3.org/2000/svg" width="32" height="32" fill="none"><g clip-path="url(#a)"><path fill="#1A1C1F" fill-rule="evenodd" d="M12.707 14.293a1 1 0 1 0-1.414 1.414l3 3a.997.997 0 0 0 1.414 0l6-6a1 1 0 1 0-1.414-1.414L15 16.586zM25 13.04c0 6.711-2.944 11.61-9 14.96-6.055-3.35-9-8.249-9-14.96V8.33L16 4l9 4.33zM16.705 2.154a1.7 1.7 0 0 0-1.41 0L5.564 6.73c-.341.155-.564.52-.564.923V13c0 7.523 3.532 13.23 10.595 16.901a.88.88 0 0 0 .81 0C23.468 26.23 27 20.524 27 13V7.653c0-.403-.223-.768-.564-.923z" clip-rule="evenodd"/></g><defs><clipPath id="a"><path fill="#fff" d="M0 0h32v32H0z"/></clipPath></defs></svg>
